X: 9
T: O'Sullivan's March
R: jig
M: 6/8
L: 1/8
K: Gmaj
|: D |G2 A B2 d | edB A2 D | G2 A B2 G | BAA ABA |
G2 A B2 d | edB A2 D | G2 A B2 G |[1 AGG G2 :|[2 AGG G ||
|: Bd |e3 e3 | efe edB | d3 dd/e/f | edB def |
gbg efg | dBG A2 D | G2 A B2 G |[1 AGG G :|[2 AGG G2 |]


Tune 2204	Setting 15571

